X: 2046
M: 3/2
L: 1/8
K: G
f6 g2a3b | b3ag2 f2e3e |\
=f6 e2e2=f2 | ^c3cd2 e2e3d | d8- d3 :|
|: a |\
a3ab2 agf3e | ^d6 e2f2g2 |\
g6 fea3a | a3be2 f2d3g |\
f6 gaa3g | g8- g3 |]


